X: 11453
Q: "With spirit."
M: 2/4
L: 1/8
K: D
|:\
g |\
fdfd | fa a(g/f/) | ecec | eg g(f/e/) |\
fdfd | faac | dAAG | F2 "^D.C."D2 |]


